X:526
T:Reel 526
M:4/4
K:Amaj
L:1/8
E|A2ED CA,A,C|B,GGF BEGB|A2ED CDEC|DFEE CA,A,z|A2ED CA,A,B,|D2ED B,CDB,|CDEG FBAG|GEDC B,A,A,|D|CB,CB, CDEF|GEDC B,G,G,B,|CDEF GABd|cABG EAAB|cBAG AGEC|DFEC B,CDB,|CDEF GABA|GEDC B,G,A,|
